X:1
T:Title
%%score ( 1 2 ) { 3 | 4 }
L:1/8
Q:1/4=97
M:3/4
K:G
V:1 treble nm="Grand Piano, Soprano"
V:2 treble 
V:3 bass nm="Choir Pad, Life of Christ"
V:4 bass 
V:1
 [B,D]>[DG] [GB]3 [FA] | [Fc]>[DF] [DA]2 [DG]2 | [B,D]>[B,D] [CE]2 [Ec]2 | z2 A2 z2 | %4
w: By~John~Marchant~Whyte * * *||||
 [B,D]>[DG] [GB]3 [DG] | [FA]>[=FB] [Ec]2 [CE]2 | [CF]>[CE] [B,D]2 [DG]2 | .F2 z2 z2 | %8
w: ||||
 [FA]>[FA] [FA]3 [DF] | [DG]>[DB] [DA]2 [DF]2 | [Fd][Fd] [G^c]4 | [Ad]2 [FA]4 | %12
w: ||||
 [FA]>[F_B] [G=B]3 G | [Gd]>[GB] [FA]2 [DF]2 | z2 F2 z2 | [^CE]2 D4 | %16
w: ||||
[M:4/4] [Bd]2 [Bd]2- [Bd][GB] [Ac]2 | [FA]2 [GB]2 [Ac]2 [GB]2 | [Bd]2 [Bd]2- [Bd][GB] [Ac]2 | %19
w: |||
 [FA]2 [GB]2 [DA]2 [DG]>D | [DG]>[FA] [GB]2 [GB]4 | [=Fd]2 [Ec]2 [Ec]4 | [EA]2 [DG]2 [GB]2 [GB]2 | %23
w: ||||
 [FA]2 [DG]6- | [DG]2 z2 z4 |] %25
w: ||
V:2
 x6 | x6 | x6 | [DF]2 D2- [DG]2 | x6 | x6 | x6 | D-[DA] [DG]4 | x6 | x6 | x6 | x6 | x6 | x6 | %14
 D>[DE] D2- [DG]2 | x6 |[M:4/4] x8 | x8 | x8 | x8 | x8 | x8 | x8 | x8 | x8 |] %25
V:3
 G,>B, D3 D | A,>A, C2 B,2 | G,>G, G,4 | C2 C2 B,2 | G,>B, D3 B, | C>B, G,2 G,2 | G,>G, G,2 B,2 | %7
 A,[K:treble]C B,4 | D>D D3[K:bass] A, | B,>G, F,2 A,2 | A,A, A,4 | A,2[K:treble] D4 | D>D D3 B, | %13
 B,>D D2[K:bass] A,2 | F,>G, A,2 B,2 | G,2 F,4 |[M:4/4] z8 | z4[K:treble] D2 D2 | z8 | %19
 z4 C2 B,>B, | D>D D2 D4 | G,2 G,2 G,4 | C2 B,2[K:treble] D2 D2 | C2 B,6- | B,2 z2 z4 |] %25
V:4
 z z/ G,/ G,3 D, | D,>D, D,2 G,2 | G,,>G,, C,4 | D,2 D,2 G,2 | z z/ G,/ G,3 G, | D,>G, C,2 C,2 | %6
 C,>C, D,4 | D,2 G,,4 | D,>D, D,3 D, | D,>D, D,2 D,2 | D,D, E,4 | F,2 D,4 | D,>D, G,3 G, | %13
 G,>G, D,2 D,2 | D,>D, D,2 G,,2 | A,,2 D,4 |[M:4/4] z8 | z4 D,2 G,2 | z8 | z4 D,2 G,,>G,, | %20
 B,,>D, G,2 G,4 | B,,2 C,2 C,4 | C,2 D,2 D,2 D,2 | D,2 [G,,G,]6- | [G,,G,]2 z2 z4 |] %25

